svgs/aves_gallery.svg

<svg width="192" height="192" viewBox="0 0 192 192" fill="none" xmlns="http://www.w3.org/2000/svg"><g clip-path="url(#a)"><path d="m120.25 141.019 22.627-22.627c6.249-6.248 6.249-16.379 0-22.627m-22.627 45.254-33.941 33.942v-67.883m33.941 33.941-33.941-33.941m0 0-62.711-62.71c-5.04-5.04-1.47-13.657 5.657-13.657h41.941a16 16 0 0 1 11.314 4.686l23.598 23.598m0 0 36.769-36.77 28.284 28.285h-20.284a8 8 0 0 0-8 8v37.255m-36.769-36.77 36.769 36.77" stroke="#000" stroke-width="12" stroke-linejoin="round"/></g><defs><clipPath id="a"><path fill="#fff" d="M0 0h192v192H0z"/></clipPath></defs></svg>

<svg id="vector" xmlns="http://www.w3.org/2000/svg" width="192" height="192" viewBox="0 0 192 192"><defs><clipPath id="clip_path_0"><path d="M0,0h192v192h-192z"/></clipPath></defs><g id="g_0"><path fill="#00000000" d="M120.25,141.02L142.88,118.39C149.13,112.14 149.13,102.01 142.88,95.76V95.76M120.25,141.02L86.31,174.96V107.08M120.25,141.02L86.31,107.08M86.31,107.08L23.6,44.37C18.56,39.33 22.13,30.71 29.25,30.71H71.2C75.44,30.71 79.51,32.4 82.51,35.4L106.11,58.99M106.11,58.99L142.88,22.23L171.16,50.51H150.88C146.46,50.51 142.88,54.09 142.88,58.51V95.76M106.11,58.99L142.88,95.76" stroke-linejoin="round" stroke-width="12" stroke="#000000" clip-path="url(#clip_path_0)"/></g></svg>
